X: 48
T:Pibddawns Dowlais
T:The Dowlais Hornpipe
M:C|
L:1/16
Q:180
S:Cadw Twmpath Collection
R:Hornpipe
A:Wales
Z:brian_martin12345@yahoo.com
K:D
Ad|f2f2 fgef|d2d2 decd|B2B2 Bcdf|edcB A2Ad|
f2f2 fgef|d2d2 decd|Bfed cBA^G|A2A2A2:||
AG|FAdA fdAF|EAef gecA|DFAc dcdf|(3efe (3dcB A2AG|
FAdA fdAF|GBdB gecA|dfaf gecA|fdec d2:||
